teams/dark/118.svg

<svg xmlns="http://www.w3.org/2000/svg" viewBox="0 0 300 300"><title>Kansas City Royals cap on dark logo</title><path fill="#fff" d="M63.14 68.34c0-15.52-9.44-20.51-17.89-20.4l-2.76-.12v-8.04h55.12v8.19c-7.89.66-15.96 5.98-15.96 20.36v48.35l3.82-2.37c7.94-12.41 28.79-45.3 33.12-54.8 5.34-11.64-2.82-11.64-10.65-11.64v-8.12h48.86v8.12h-3.44c-5.32 0-11.89 0-20.67 11.99-11.23 15.37-33.52 52.61-33.52 52.61 34.14 2.84 46.99 54.76 55.76 61.8-5.01-37.09 19.75-83.34 56.08-81.55 4.07.18 9.07-.38 20.66 3.15 11.6 3.53 12.66-2.8 14.21-9.88h8.67v61.11h-7.5c-.62-10.58-5.35-45.58-35.95-46.65-31.1-1.04-36.95 38.85-37.38 66.08-1.56 100.62 61.71 97.45 73.3 64.95 1.69-4.69.95-6.04-.95-7.06-13.79-7.4 2.2-27.19 11.05-9.88 4.06 7.94-3.21 45.57-41.13 45.57-58.87 0-76.1-91.14-98.03-120.8-17.08-23.1-31.01-12.7-36.25-7.05l-.23 15.87.14 28.27c0 15.54 9.43 20.53 17.9 20.43l2.76.1v8.01h-59.8v-8.01l2.76-.1c8.46.1 17.89-4.89 17.89-20.43V68.34m200.12 181.83h-3.17v8.61h-2.13v-8.61h-3.15v-1.82h8.45v1.83Zm14.28 8.61h-2.13v-8.31h-.05l-3.02 8.31h-2.06l-2.93-8.31h-.06v8.31h-2.11v-10.43h3.69l2.42 6.8h.05l2.53-6.8h3.68v10.43Z"/></svg>

<svg width="300" height="300" viewBox="0 0 300 300" fill="none" xmlns="http://www.w3.org/2000/svg">
<path d="M63.14 68.34C63.14 52.82 53.7 47.83 45.25 47.94L42.49 47.82V39.78H97.61V47.97C89.72 48.63 81.65 53.95 81.65 68.33V116.68L85.47 114.31C93.41 101.9 114.26 69.01 118.59 59.51C123.93 47.87 115.77 47.87 107.94 47.87V39.75H156.8V47.87H153.36C148.04 47.87 141.47 47.87 132.69 59.86C121.46 75.23 99.17 112.47 99.17 112.47C133.31 115.31 146.16 167.23 154.93 174.27C149.92 137.18 174.68 90.93 211.01 92.72C215.08 92.9 220.08 92.34 231.67 95.87C243.27 99.4 244.33 93.07 245.88 85.99H254.55V147.1H247.05C246.43 136.52 241.7 101.52 211.1 100.45C180 99.41 174.15 139.3 173.72 166.53C172.16 267.15 235.43 263.98 247.02 231.48C248.71 226.79 247.97 225.44 246.07 224.42C232.28 217.02 248.27 197.23 257.12 214.54C261.18 222.48 253.91 260.11 215.99 260.11C157.12 260.11 139.89 168.97 117.96 139.31C100.88 116.21 86.95 126.61 81.71 132.26L81.48 148.13L81.62 176.4C81.62 191.94 91.05 196.93 99.52 196.83L102.28 196.93V204.94H42.48V196.93L45.24 196.83C53.7 196.93 63.13 191.94 63.13 176.4V68.34" fill="white"/>
</svg>
